!!!!SEGMENT: pl-gd--ee-1638--003-014_marenzio-luca--madrigali-a-quatro-voci-vezzosi-augelli.krn
!!!cenid: 15xx:988
!!!COM: Marenzio, Luca
!!!COM-rismID: pe30003955
!!!CDT: ~1553-1599/08/22
!!!CNT: Italian
!!!GTL: Madrigali a quatro voci
!!!OTL: Vezzosi augelli
!!!OMV: 014
!!!PDT: 1587
!!!AGN:
!!!SMS-siglum: PL-GD
!!!SMS-shelfmark: Ee 1638
!!!SMS-shelfwork: 003-014 G
!!!SMS-variant:
!!!SMS-altvar:
!!!NIFC-rismSourceID: 1001202747
!!!NIFC-rismChildID: 990039322
!!!NIFC-islandoraID: pl-gd:57883
!!!URL-pdf-islandora: https://repozytorium.nifc.pl/islandora/object/pl-gd%3A57883/datastream/PDF/view
!!!URL-scan: https://polish.musicsources.pl/pl/lokalizacje/galeria/klocki-introligatorskie/655 @EN{Scan on Polish Music Sources Website} @PL{Skany w portalu Dziedzictwo Muzyki Polskiej w otwartym dostępie}
!!!ONB-nifc: UWAGA: zbiór na stronach: Canto: s. 637-653, Alto: s. do 486-501, Tenore: s. do 334-349, Bassus: s. do 182-197. Uwaga: utwory podzielone wg tytułów w spisach treści dostępnych na końcu każdej księgi głosowej.
!!!AIN: 1 alto 1 bass 1 soprn 1 tenor
!!!key: a:aeo
**kern	**text	**mod-text	**kern	**text	**mod-text	**kern	**text	**mod-text	**kern	**text	**mod-text
*part4	*part4	*part4	*part3	*part3	*part3	*part2	*part2	*part2	*part1	*part1	*part1
*staff4	*staff4	*staff4	*staff3	*staff3	*staff3	*staff2	*staff2	*staff2	*staff1	*staff1	*staff1
*I"BASSO	*	*	*I"TENORE	*	*	*I"ALTO	*	*	*I"CANTO	*	*
*mI"Basso	*	*	*mI"Tenore	*	*	*mI"Alto	*	*	*mI"Soprano	*	*
*I'B	*	*	*I'T	*	*	*I'A	*	*	*I'S	*	*
*Ibass	*	*	*Itenor	*	*	*Ialto	*	*	*Isoprn	*	*
*ICvox	*	*	*ICvox	*	*	*ICvox	*	*	*ICvox	*	*
*clefF4	*	*	*clefC4	*	*	*clefC3	*	*	*clefC1	*	*
*mclefF4	*	*	*mclefGv2	*	*	*mclefG2	*	*	*mclefG2	*	*
*k[]	*	*	*k[]	*	*	*k[]	*	*	*k[]	*	*
*a:aeo	*	*	*a:aeo	*	*	*a:aeo	*	*	*a:aeo	*	*
*M2/1	*	*	*M2/1	*	*	*M2/1	*	*	*M2/1	*	*
*met(C)	*	*	*met(C)	*	*	*met(C)	*	*	*met(C)	*	*
=1-	=1-	=1-	=1-	=1-	=1-	=1-	=1-	=1-	=1-	=1-	=1-
*xywh-pl-gd--ee1638-8o--0189:1138,583,3403,863	*	*	*xywh-pl-gd--ee1638-8o--0341:1186,495,3410,875	*	*	*xywh-pl-gd--ee1638-8o--0493:969,559,3540,752	*	*	*xywh-pl-gd--ee1638-8o--0645:1135,548,3405,760	*	*
!LO:TX:b:t=VEzzoxi augelli.:mod=	!	!	!	!	!	!	!	!	!	!	!
00r	.	.	1A	VEz-	Vez-	4r	.	.	4r	.	.
.	.	.	.	.	.	4a\	VEz-	Vez-	4cc\	VEz-	Vez-
.	.	.	.	.	.	4a\	-za-	-za-	4cc\	-zo-	-zo-
.	.	.	.	.	.	8g\	.	.	8b\	.	.
.	.	.	.	.	.	8f\	.	.	8a\	.	.
.	.	.	1c	-zo-	-zo-	4e\	.	.	4g/	.	.
.	.	.	.	.	.	8A/	-ſi	-ſi	8c/	-ſi	-ſi
.	.	.	.	.	.	8B/	au-	au-	8d/	au-	au-
.	.	.	.	.	.	8c/	.	.	8e/	.	.
.	.	.	.	.	.	8d\	.	.	8f/	.	.
.	.	.	.	.	.	8e\	.	.	8g/	.	.
.	.	.	.	.	.	8f\	.	.	8a\	.	.
=2-	=2-	=2-	=2-	=2-	=2-	=2-	=2-	=2-	=2-	=2-	=2-
.	.	.	1G	-ſi au-	-ſi au-	4.g\	.	.	4b\	.	.
.	.	.	.	.	.	.	.	.	8g\	-gel-	-gel-
.	.	.	.	.	.	16f\	.	.	8a\	.	.
.	.	.	.	.	.	16e\	.	.	.	.	.
.	.	.	.	.	.	4d\	.	.	8b\	.	.
.	.	.	.	.	.	.	.	.	8cc\	.	.
.	.	.	.	.	.	2g\	-gel-	-gel-	8dd\	.	.
.	.	.	.	.	.	.	.	.	8b\	.	.
.	.	.	1A	-gel-	-gel-	.	.	.	4cc\	.	.
.	.	.	.	.	.	8f\	.	.	4.dd\	.	.
.	.	.	.	.	.	8e\	.	.	.	.	.
.	.	.	.	.	.	4f\	.	.	.	.	.
.	.	.	.	.	.	.	.	.	8cc\	.	.
.	.	.	.	.	.	8e\	.	.	2cc\	.	.
.	.	.	.	.	.	8d\	.	.	.	.	.
=3-	=3-	=3-	=3-	=3-	=3-	=3-	=3-	=3-	=3-	=3-	=3-
00r	.	.	1G	-li	-li	4e\	.	.	.	.	.
.	.	.	.	.	.	8d\	.	.	8b\	.	.
.	.	.	.	.	.	8c\	.	.	8a\	.	.
.	.	.	.	.	.	2d\	.	.	2b\	.	.
!	!	!	!	!	!	!LO:MO:mod=*null:null	!	!	!	!	!
*	*	*	*	*	*	*custos:c	*	*	*	*	*
!	!	!	!	!	!	!LO:LB:g=original	!	!	!	!	!
*	*	*	*	*	*	*xywh-pl-gd--ee1638-8o--0493:1191,1230,3355,705	*	*	*	*	*
.	.	.	4r	.	.	2c/	-li	-li	1cc	-li	-li
.	.	.	4c\	in-	in-	.	.	.	.	.	.
.	.	.	4.c\	-frà	-fra	4r	.	.	.	.	.
.	.	.	.	.	.	4g\	in-	in-	.	.	.
.	.	.	8d\	-le	le	.	.	.	.	.	.
!	!	!	!	!	!	!	!	!	!LO:MO:mod=*null:null	!	!
*	*	*	*	*	*	*	*	*	*custos:g	*	*
!	!	!	!	!	!	!	!	!	!LO:LB:g=original	!	!
=4-	=4-	=4-	=4-	=4-	=4-	=4-	=4-	=4-	=4-	=4-	=4-
*	*	*	*	*	*	*	*	*	*xywh-pl-gd--ee1638-8o--0645:1088,1087,3533,784	*	*
.	.	.	4e\	ver-	ver-	4.g\	-frà	-fra	2r	.	.
.	.	.	4B\	-di	-di	.	.	.	.	.	.
.	.	.	.	.	.	8f\	le	le	.	.	.
.	.	.	4c\	fron-	fron-	4.e\	ver-	ver-	1g	in-	in-
.	.	.	4G/	-de	-de	.	.	.	.	.	.
.	.	.	.	.	.	8B/	-di	-di	.	.	.
.	.	.	4r	.	.	4c/	fron-	fron-	.	.	.
*	*	*	*	*ij	*	*	*	*	*	*	*
.	.	.	4d\	in-	in-	4G/	-de	-de	.	.	.
.	.	.	4.d\	-frà	-fra	4r	.	.	1a\	-frà	-fra
*	*	*	*	*	*	*	*ij	*	*	*	*
.	.	.	.	.	.	4d\	in-	in-	.	.	.
.	.	.	8e\	le	le	.	.	.	.	.	.
=5-	=5-	=5-	=5-	=5-	=5-	=5-	=5-	=5-	=5-	=5-	=5-
00r	.	.	4.f\	ver-	ver-	4.d\	-frà	-fra	.	.	.
.	.	.	8c\	-di	-di	8e\	le	le	.	.	.
.	.	.	4d\	fron-	fron-	4.f\	ver-	ver-	1a	le	le
.	.	.	4A/	-de	-de	.	.	.	.	.	.
*	*	*	*	*Xij	*	*	*	*	*	*	*
.	.	.	.	.	.	8c/	-di	-di	.	.	.
.	.	.	4r	.	.	4d\	fron-	fron-	.	.	.
.	.	.	4e\	in-	in-	4A/	-de	-de	.	.	.
!	!	!	!LO:MO:mod=*null:null	!	!	!	!	!	!	!	!
*	*	*	*custos:e	*	*	*	*Xij	*	*	*	*
!	!	!	!LO:LB:g=original	!	!	!	!	!	!	!	!
*	*	*	*xywh-pl-gd--ee1638-8o--0341:1083,1226,3534,762	*	*	*	*	*	*	*	*
.	.	.	4.e\	-frà	-fra	4r	.	.	1b\	ver-	ver-
.	.	.	.	.	.	4e\	in-	in-	.	.	.
.	.	.	8f\	le	le	.	.	.	.	.	.
=6-	=6-	=6-	=6-	=6-	=6-	=6-	=6-	=6-	=6-	=6-	=6-
.	.	.	4.g\	ver-	ver-	4.e\	-frà	-fra	.	.	.
.	.	.	8d\	-di	-di	8f\	le	le	.	.	.
.	.	.	4.e\	fron-	fron-	2g\	ver-	ver-	2b\	-di	-di
.	.	.	8d\	.	.	.	.	.	.	.	.
.	.	.	4.c\	.	.	4e\	-di	-di	4.ee\	fron-	fron-
.	.	.	.	.	.	2a\	fron-	fron-	.	.	.
.	.	.	8d\	.	.	.	.	.	16dd\	.	.
.	.	.	.	.	.	.	.	.	16cc\	.	.
.	.	.	2e\	-de	-de	.	.	.	2b\	.	.
.	.	.	.	.	.	4g#X\	.	.	.	.	.
!	!	!	!	!	!	!LO:MO:mod=*null:null	!	!	!	!	!
*	*	*	*	*	*	*custos:a	*	*	*	*	*
!	!	!	!	!	!	!LO:LB:g=original	!	!	!	!	!
=7-	=7-	=7-	=7-	=7-	=7-	=7-	=7-	=7-	=7-	=7-	=7-
*	*	*	*	*	*	*xywh-pl-gd--ee1638-8o--0493:1099,1716,3482,775	*	*	*	*	*
4r	.	.	2A/	.	.	4.a\	-de	-de	4a\	-de	-de
4.A\	Tem-	Tem-	.	.	.	.	.	.	4.cc\	Te(m)-	Tem-
.	.	.	.	.	.	16gny\	.	.	.	.	.
.	.	.	.	.	.	16f\	.	.	.	.	.
.	.	.	2r	.	.	2e\	.	.	.	.	.
8A\	-pra-	-pra-	.	.	.	.	.	.	8cc\	-pra-	-pra-
4G\	-no a	-no a	.	.	.	.	.	.	4b\	-no a	-no a
2F\	pro-	pro-	2r	.	.	4r	.	.	2a\	pro-	pro-
.	.	.	.	.	.	4.f\	Te(m)-	Tem-	.	.	.
2C/	-ua	-va	4r	.	.	.	.	.	2g/	-ua	-va
.	.	.	.	.	.	8f\	-pra-	-pra-	.	.	.
.	.	.	4.c\	Te(m)-	Tem-	4e\	-no a	-no a	.	.	.
=8-	=8-	=8-	=8-	=8-	=8-	=8-	=8-	=8-	=8-	=8-	=8-
2G\	la-	la-	.	.	.	2d\	pro-	pro-	4r	.	.
.	.	.	8c\	-pra-	-pra-	.	.	.	.	.	.
.	.	.	4B\	-no a	-no a	.	.	.	4.g/	Te(m)-	Tem-
2D/	-ſci-	-ſci-	2A/	pro-	pro-	4d\	-va	-va	.	.	.
.	.	.	.	.	.	.	.	.	8g/	-pra-	-pra-
*	*	*	*	*	*	*	*ij	*	*	*	*
.	.	.	.	.	.	4.d\	Tem-	Tem-	4f/	-no a	-no a
4.E\	-uet-	-vet-	2G/	-ua	-va	.	.	.	2e/	pro-	pro-
.	.	.	.	.	.	8d\	-pra-	-pra-	.	.	.
.	.	.	.	.	.	4c/	-no a	-no a	.	.	.
8F\	-te	-te	.	.	.	.	.	.	.	.	.
2G\	no-	no-	2r	.	.	2B/	pro-	pro-	2d/	-ua	-va
=9-	=9-	=9-	=9-	=9-	=9-	=9-	=9-	=9-	=9-	=9-	=9-
2C/	-te	-te	2c\	la-	la-	2e\	-va	-va	4g/	la	la
*	*	*	*	*	*	*	*Xij	*	*	*	*
.	.	.	.	.	.	.	.	.	4a\	ſci-	ſci-
2G\	la-	la-	2B\	-ſci-	-ſci-	4d\	la	la	4b\	-uet-	-vet-
.	.	.	.	.	.	4e\	ſci-	ſci-	4cc\	-te	-te
!LO:MO:mod=*null:null	!	!	!	!	!	!	!	!	!LO:MO:mod=*null:null	!	!
*custos:D	*	*	*	*	*	*	*	*	*custos:dd	*	*
!LO:LB:g=original	!	!	!	!	!	!	!	!	!LO:LB:g=original	!	!
*xywh-pl-gd--ee1638-8o--0189:1190,1249,3361,728	*	*	*	*	*	*	*	*	*xywh-pl-gd--ee1638-8o--0645:1111,1730,3440,631	*	*
2D/	-ſci-	-ſci-	4A/	-uet-	-vet-	8f\	-uet-	-vet-	8dd\	no-	no-
.	.	.	.	.	.	8e\	.	.	8cc\	.	.
.	.	.	2B\	-te	-te	8d\	.	.	8b\	.	.
.	.	.	.	.	.	8c\	.	.	8a\	.	.
4.E\	-uet-	-vet-	.	.	.	4B/	.	.	4.g/	.	.
.	.	.	2c\	no-	no-	4g\	-te	-te	.	.	.
8F\	-te	-te	.	.	.	.	.	.	16f/	.	.
.	.	.	.	.	.	.	.	.	16e/	.	.
=10-	=10-	=10-	=10-	=10-	=10-	=10-	=10-	=10-	=10-	=10-	=10-
1G	no-	no-	.	.	.	1g	no-	no-	1d	.	.
.	.	.	8B\	.	.	.	.	.	.	.	.
.	.	.	8A\	.	.	.	.	.	.	.	.
.	.	.	2B\	.	.	.	.	.	.	.	.
1C	-te	-te	1c	-te	-te	1g	-te	-te	1e	-te	-te
!	!	!	!LO:MO:mod=*null:null	!	!	!LO:MO:mod=*null:null	!	!	!	!	!
*	*	*	*custos:C	*	*	*custos:g	*	*	*	*	*
!	!	!	!LO:LB:g=original	!	!	!LO:LB:g=original	!	!	!	!	!
=11-	=11-	=11-	=11-	=11-	=11-	=11-	=11-	=11-	=11-	=11-	=11-
*	*	*	*xywh-pl-gd--ee1638-8o--0341:1165,1762,3441,772	*	*	*xywh-pl-gd--ee1638-8o--0493:1157,2295,3425,705	*	*	*	*	*
4.c\	Mor-	Mor-	8C/	Mor-	Mor-	4r	.	.	4.ee\	Mor-	Mor-
.	.	.	8D/	.	.	.	.	.	.	.	.
.	.	.	8E/	.	.	4.g\	Mor-	Mor-	.	.	.
16B\	.	.	8F/	.	.	.	.	.	16dd\	.	.
16A\	.	.	.	.	.	.	.	.	16cc\	.	.
4.G\	.	.	8G/	.	.	.	.	.	4.b\	.	.
.	.	.	8A/	.	.	16f\	.	.	.	.	.
.	.	.	.	.	.	16e\	.	.	.	.	.
.	.	.	8B\	.	.	4.d\	.	.	.	.	.
16F\	.	.	8c\	.	.	.	.	.	16a\	.	.
16E\	.	.	.	.	.	.	.	.	16g\	.	.
4.D/	.	.	8d\	.	.	.	.	.	4.f/	.	.
.	.	.	8e\	.	.	8c\	.	.	.	.	.
.	.	.	8f\	.	.	8d\	.	.	.	.	.
16C/	.	.	8g\	.	.	8e\	.	.	16e/	.	.
16BB/	.	.	.	.	.	.	.	.	16d/	.	.
4.AA/	.	.	4.a\	.	.	4.f#X\	.	.	4.c/	.	.
8AA/	-mo-	-mo-	8a\	-mo-	-mo-	8f#\	-mo-	-mo-	8c/	-mo-	-mo-
=12-	=12-	=12-	=12-	=12-	=12-	=12-	=12-	=12-	=12-	=12-	=12-
2GG/	-ra	-ra	2d\	-ra	-ra	2g\	-ra	-ra	2B/	-ra	-ra
1C	l'au-	l'au-	1e	l' au-	l' au-	1g	l'au-	l'au-	1c	l'au-	l'au-
2FF/	-ra	-ra,	2A/	-ra e	-ra, e	2fny\	-ra	-ra,	2c/	-ra	-ra,
=13-	=13-	=13-	=13-	=13-	=13-	=13-	=13-	=13-	=13-	=13-	=13-
4r	.	.	2c\	fa	fa	4r	.	.	4r	.	.
4F\	e	e	.	.	.	4f\	e	e	4a\	e	e
2A\	fa	fa	4r	.	.	2e\	fa	fa	2cc\	fa	fa
.	.	.	4A/	e	e	.	.	.	.	.	.
4r	.	.	2c\	fa	fa	4r	.	.	4r	.	.
4A\	e	e	.	.	.	4a\	e	e	4ee\	e	e
4c\	fa	fa	4r	.	.	2g\	fa	fa	4ee\	fa	fa
4G\	le	le	4B\	le	le	.	.	.	4dd\	le	le
!LO:MO:mod=*null:null	!	!	!	!	!	!	!	!	!LO:MO:mod=*null:null	!	!
*custos:A	*	*	*	*	*	*	*	*	*custos:cc	*	*
!LO:LB:g=original	!	!	!	!	!	!	!	!	!LO:LB:g=original	!	!
=14-	=14-	=14-	=14-	=14-	=14-	=14-	=14-	=14-	=14-	=14-	=14-
*xywh-pl-gd--ee1638-8o--0189:1263,1853,3257,645	*	*	*	*	*	*	*	*	*xywh-pl-gd--ee1638-8o--0645:1111,2245,3416,667	*	*
4.A\	fo-	fo-	4.c\	fo-	fo-	4e\	le	le	4.cc\	fo-	fo-
.	.	.	.	.	.	4.f\	fo-	fo-	.	.	.
8F\	.	.	8d\	.	.	.	.	.	8a\	.	.
4.G\	.	.	4.B\	.	.	.	.	.	4.b\	.	.
.	.	.	.	.	.	8e\	.	.	.	.	.
.	.	.	.	.	.	4.e\	.	.	.	.	.
8E\	.	.	8c\	.	.	.	.	.	8g\	.	.
4.F\	.	.	4.A/	.	.	.	.	.	4.a\	.	.
.	.	.	.	.	.	8d\	.	.	.	.	.
.	.	.	.	.	.	2d\	.	.	.	.	.
8D\	.	.	8B\	.	.	.	.	.	8f#X/	.	.
2E\	.	.	2G/	.	.	.	.	.	1g\	-glie	-glie
.	.	.	.	.	.	4c#X/	.	.	.	.	.
!	!	!	!LO:MO:mod=*null:null	!	!	!	!	!	!	!	!
*	*	*	*custos:A	*	*	*	*	*	*	*	*
!	!	!	!LO:LB:g=original	!	!	!	!	!	!	!	!
=15-	=15-	=15-	=15-	=15-	=15-	=15-	=15-	=15-	=15-	=15-	=15-
*	*	*	*xywh-pl-gd--ee1638-8o--0341:1207,2318,3390,783	*	*	*	*	*	*	*	*
1D	-glie	-glie	1A	-glie	-glie	1d	-glie	-glie	.	.	.
.	.	.	.	.	.	.	.	.	2f#X/	e l'	e l'
!	!	!	!	!	!	!LO:MO:mod=*null:null	!	!	!	!	!
*	*	*	*	*	*	*custos:e	*	*	*	*	*
!	!	!	!	!	!	!LO:LB:g=original	!	!	!	!	!
*	*	*	*lig	*	*	*xywh-pl-gd--ee1638-8o--0493:1041,2862,3529,728	*	*	*	*	*
8G\	e l'on-	e l'on-	1B	e l'on-	e l'on-	1r	.	.	1g	on-	on-
8F\	.	.	.	.	.	.	.	.	.	.	.
8E\	.	.	.	.	.	.	.	.	.	.	.
8F\	.	.	.	.	.	.	.	.	.	.	.
8G\	.	.	.	.	.	.	.	.	.	.	.
8F\	.	.	.	.	.	.	.	.	.	.	.
8E\	.	.	.	.	.	.	.	.	.	.	.
8D/	.	.	.	.	.	.	.	.	.	.	.
=16-	=16-	=16-	=16-	=16-	=16-	=16-	=16-	=16-	=16-	=16-	=16-
8C/	.	.	1c	.	.	1e	e	e	2.g/	-de	-de
*	*	*	*Xlig	*	*	*	*	*	*	*	*
8D/	.	.	.	.	.	.	.	.	.	.	.
8E\	.	.	.	.	.	.	.	.	.	.	.
8D/	.	.	.	.	.	.	.	.	.	.	.
8C/	.	.	.	.	.	.	.	.	.	.	.
8BB/	.	.	.	.	.	.	.	.	.	.	.
8AA/	.	.	.	.	.	.	.	.	4a\	e l'	e l'
8GG/	.	.	.	.	.	.	.	.	.	.	.
2FF/	.	.	2c\	-de	-de	2f\	l'on-	l'on-	2a\	on-	on-
4FF/	-de	-de	4r	.	.	2cny/	-de	-de	2a\	-de	-de
4F\	Ga-	Ga-	4A/	Ga-	Ga-	.	.	.	.	.	.
!LO:MO:mod=*null:null	!	!	!	!	!	!	!	!	!	!	!
*custos:E	*	*	*	*	*	*	*	*	*	*	*
!LO:LB:g=original	!	!	!	!	!	!	!	!	!	!	!
=17-	=17-	=17-	=17-	=17-	=17-	=17-	=17-	=17-	=17-	=17-	=17-
*xywh-pl-gd--ee1638-8o--0189:1190,2425,3434,624	*	*	*	*	*	*	*	*	*	*	*
8E\	-rir	-rir,	8G/	-rir	-rir,	4r	.	.	4r	.	.
8F\	.	.	8A/	.	.	.	.	.	.	.	.
4G\	.	.	4B\	.	.	4d\	Ga-	Ga-	4g/	Ga-	Ga-
4r	.	.	4r	.	.	8f\	-rir	-rir,	8a\	-rir	-rir,
.	.	.	.	.	.	8g\	.	.	8b\	.	.
4F\	Ga-	Ga-	4A/	Ga-	Ga-	4a\	.	.	4cc\	.	.
8E\	-rir	-rir,	8G/	-rir	-rir,	4r	.	.	4r	.	.
8F\	.	.	8A/	.	.	.	.	.	.	.	.
4G\	.	.	4B\	.	.	4d\	Ga-	Ga-	4g/	Ga-	Ga-
4r	.	.	4r	.	.	8f\	-rir	-rir,	8a\	-rir	-rir,
.	.	.	.	.	.	8g\	.	.	8b\	.	.
4F\	che	che	4A/	che	che	4a\	.	.	4cc\	.	.
=18-	=18-	=18-	=18-	=18-	=18-	=18-	=18-	=18-	=18-	=18-	=18-
!	!	!	!	!	!	!	!	!	!LO:LB:g=original	!	!
4.G\	va-	va-	4.B\	va-	va-	4r	.	.	4r	.	.
.	.	.	.	.	.	4d\	che	che	4g/	che	che
8G\	-ria-	-ria-	8B\	-ria-	-ria-	.	.	.	.	.	.
2A\	-men-	-men-	2c#X\	-men-	-men-	4.a\	va-	va-	4.e/	va-	va-
!	!	!	!	!	!	!	!	!	!LO:MO:mod=*null:null	!	!
*	*	*	*	*	*	*	*	*	*custos:a	*	*
*	*	*	*	*	*	*	*	*	*xywh-pl-gd--ee1638-8o--0645:1018,2830,3475,655	*	*
.	.	.	.	.	.	8a\	-ria-	-ria-	8e/	-ria-	-ria-
4D/	-te	-te	4d\	-te	-te	2f\	-men-	-men-	2a\	-me(n)-	-men-
8D/	ella	ella	8d\	ella	ella	.	.	.	.	.	.
8D/	per-	per-	8d\	per-	per-	.	.	.	.	.	.
2G\	-co-	-co-	2B\	-co-	-co-	4d\	-te	-te	4g/	-te	-te
.	.	.	.	.	.	8d\	ella	ella	8g/	ella	ella
.	.	.	.	.	.	8d\	per-	per-	8g/	per-	per-
=19-	=19-	=19-	=19-	=19-	=19-	=19-	=19-	=19-	=19-	=19-	=19-
1C	-te	-te	1nyc	-te	-te	2e\	-co-	-co-	2g/	-co-	-co-
.	.	.	.	.	.	2g\	-te	-te	2e/	-te	-te
1.F	Quan-	Quan-	2r	.	.	2r	.	.	2r	.	.
.	.	.	1A\	Qua(n)-	Quan-	1c\	Quan-	Quan-	1fny/	Qua(n)-	Quan-
!	!	!	!	!	!	!LO:LB:g=original	!	!	!	!	!
=20-	=20-	=20-	=20-	=20-	=20-	=20-	=20-	=20-	=20-	=20-	=20-
2BB-X/	-do	-do	2F/	-do	-do	2B-X/	-do	-do	2d/	-do	-do
!	!	!	!LO:MO:mod=*null:null	!	!	!LO:MO:mod=*null:null	!	!	!	!	!
*	*	*	*custos:F	*	*	*custos:B	*	*	*	*	*
!	!	!	!LO:LB:g=original	!	!	!LO:LB:g=original	!	!	!	!	!
*	*	*	*xywh-pl-gd--ee1638-8o--0341:1124,2792,3482,783	*	*	*xywh-pl-gd--ee1638-8o--0493:1191,3325,3367,740	*	*	*	*	*
!	!	!	!	!	!	!	!	!	!	!LO:MO:mod=tac-	!
1BB-	tac-	tac-	1F	tac-	tac-	1B-	tac-	tac-	1d	ta-	tac-
=21-	=21-	=21-	=21-	=21-	=21-	=21-	=21-	=21-	=21-	=21-	=21-
2FF/	-cion	-cion	2F/	-cio(n)	-cion	2A/	-cio(n)	-cion	2c/	-cio(n)	-cion
2GG/	gl' au-	gli au-	2D/	gl' au-	gli au-	2G/	gl' au-	gli au-	2B/	gl' au-	gli au-
!LO:MO:mod=*null:null	!	!	!	!	!	!	!	!	!	!	!
*custos:FF	*	*	*	*	*	*	*	*	*	*	*
!LO:LB:g=original	!	!	!	!	!	!	!	!	!	!	!
*xywh-pl-gd--ee1638-8o--0189:1211,2946,3320,593	*	*	*	*	*	*	*	*	*	*	*
1FF	-gel-	-gel-	1F	-gel-	-gel-	4.A/	-gel-	-gel-	4.c/	-gel-	-gel-
!	!	!	!	!	!	!LO:SIC:s=8B-	!	!	!LO:SIC:v:s=8B-/	!	!
.	.	.	.	.	.	8B-y/	.	.	8B/	.	.
.	.	.	.	.	.	8c/	.	.	8A/	.	.
!	!	!	!	!	!	!	!	!	!LO:SIC:v:s=8B-/	!	!
.	.	.	.	.	.	8B-/	.	.	8B/	.	.
.	.	.	.	.	.	8A/	.	.	8c/	.	.
.	.	.	.	.	.	8G/	.	.	8d/	.	.
=22-	=22-	=22-	=22-	=22-	=22-	=22-	=22-	=22-	=22-	=22-	=22-
1FF	-li	-li,	2F/	-li	-li,	2A/	.	.	2c/	.	.
.	.	.	4r	.	.	4.A/	-li	-li,	2c/	-li	-li,
.	.	.	4.F/	al-	al-	.	.	.	.	.	.
!	!	!	!	!	!	!LO:SIC:s=8B-	!	!	!	!	!
.	.	.	.	.	.	8B-y/	.	.	.	.	.
4r	.	.	.	.	.	2c/	.	.	4r	.	.
.	.	.	8F/	-to	-to	.	.	.	.	.	.
4.F\	al-	al-	4A/	ri-	ri-	.	.	.	4.a\	al-	al-
.	.	.	2c\	-ſpon-	-ſpon-	4r	.	.	.	.	.
8F\	-to	-to	.	.	.	.	.	.	8a\	-to	-to
4A\	ri-	ri-	.	.	.	4.c/	al-	al-	4cc\	ri-	ri-
=23-	=23-	=23-	=23-	=23-	=23-	=23-	=23-	=23-	=23-	=23-	=23-
2c\	-ſpon-	-ſpon-	4C/	-de	-de,	.	.	.	2ee\	-ſpo(n)-	-ſpon-
.	.	.	.	.	.	8c/	-to	-to	.	.	.
.	.	.	4.c\	al-	al-	4e\	ri-	ri-	.	.	.
4C/	-de	-de,	.	.	.	2g\	-ſpon-	-ſpon-	2ee\	-de	-de,
.	.	.	8c\	-to	-to	.	.	.	.	.	.
4C/	ri-	ri-	2e\	ri-	ri-	.	.	.	.	.	.
2c\	-ſpon-	-ſpon-	.	.	.	4g\	-de	-de,	4r	.	.
.	.	.	4g\	-ſpon-	-ſpon-	4.c/	al-	al-	4e/	ri-	ri-
4C/	-de	-de,	4g\	-de	-de,	.	.	.	2ee\	-ſpon-	-ſpon-
.	.	.	.	.	.	8c/	-to	-to	.	.	.
*	*	*	*	*ij	*	*	*	*	*	*	*
4C/	ri-	ri-	4.c\	al-	al-	4e\	ri-	ri-	.	.	.
!	!	!	!	!	!	!LO:MO:mod=*null:null	!	!	!LO:MO:mod=*null:null	!	!
*	*	*	*	*	*	*custos:g	*	*	*custos:e	*	*
!	!	!	!	!	!	!LO:LB:g=original	!	!	!LO:LB:g=original	!	!
=24-	=24-	=24-	=24-	=24-	=24-	=24-	=24-	=24-	=24-	=24-	=24-
*	*	*	*	*	*	*xywh-pl-gd--ee1638-8o--0493:1052,3926,3425,682	*	*	*xywh-pl-gd--ee1638-8o--0645:1064,3298,3463,748	*	*
2c\	-ſpon-	-ſpon-	.	.	.	4.g\	-ſpon-	-ſpon-	4e/	-de	-de,
.	.	.	8c\	-to	-to	.	.	.	.	.	.
*	*	*	*	*	*	*	*	*	*	*ij	*
.	.	.	2e\	ri-	ri-	.	.	.	4e/	ri-	ri-
.	.	.	.	.	.	8f\	.	.	.	.	.
2C/	-de	-de;	.	.	.	8e\	.	.	2ee\	-ſpon-	-ſpon-
.	.	.	.	.	.	8d\	.	.	.	.	.
.	.	.	2g\	-ſpon-	-ſpon-	2c/	.	.	.	.	.
1G	Quan-	Quan-	.	.	.	.	.	.	2dd\	-de	-de;
.	.	.	4d\	-de	-de;	4B/	-de	-de;	.	.	.
*	*	*	*	*Xij	*	*	*	*	*	*Xij	*
.	.	.	1d\	Qua(n)-	Quan-	1g\	Qua(n)-	Quan-	1b\	Qua(n)-	Quan-
=25-	=25-	=25-	=25-	=25-	=25-	=25-	=25-	=25-	=25-	=25-	=25-
1D	-do	-do	.	.	.	.	.	.	.	.	.
.	.	.	2d\	-do	-do	2f#X\	-do	-do	2a\	-do	-do
4r	.	.	4r	.	.	4r	.	.	4r	.	.
2G\	qua(n)-	quan-	2d\	quan-	quan-	2g\	quan-	quan-	2b\	quan-	quan-
4C/	-do	-do	4e\	-do	-do	4g\	-do	-do	4cc\	-do	-do
!	!	!	!LO:MO:mod=*null:null	!	!	!	!	!	!	!	!
*	*	*	*custos:A	*	*	*	*	*	*	*	*
!	!	!	!LO:LB:g=original	!	!	!	!	!	!	!	!
=26-	=26-	=26-	=26-	=26-	=26-	=26-	=26-	=26-	=26-	=26-	=26-
*	*	*	*xywh-pl-gd--ee1638-8o--0341:1176,3400,3400,721	*	*	*	*	*	*	*	*
8F\	can-	can-	8A/	can-	can-	2r	.	.	2r	.	.
8E\	.	.	8G/	.	.	.	.	.	.	.	.
8F\	.	.	8A\	.	.	.	.	.	.	.	.
8G\	.	.	8B\	.	.	.	.	.	.	.	.
4F\	.	.	4c\	.	.	8fny\	can-	can-	8a\	can-	can-
.	.	.	.	.	.	8e\	.	.	8g\	.	.
4F\	-tan	-tan	4c\	-tan	-tan	8f\	.	.	8a\	.	.
.	.	.	.	.	.	8g\	.	.	8b\	.	.
!LO:MO:mod=*null:null	!	!	!	!	!	!	!	!	!	!	!
*custos:F	*	*	*	*	*	*	*	*	*	*	*
!LO:LB:g=original	!	!	!	!	!	!	!	!	!	!	!
*xywh-pl-gd--ee1638-8o--0189:1284,3424,3341,707	*	*	*	*	*	*	*	*	*	*	*
8F\	can-	can-	8A/	can-	can-	4a\	.	.	4cc\	.	.
8E\	.	.	8G/	.	.	.	.	.	.	.	.
8F\	.	.	8A\	.	.	4a\	-tan	-tan	4cc\	-tan	-tan
8G\	.	.	8B\	.	.	.	.	.	.	.	.
2A\	.	.	2.c\	.	.	8e\	can-	can-	8cc\	can-	can-
.	.	.	.	.	.	8d\	.	.	8b\	.	.
.	.	.	.	.	.	8e\	.	.	8cc\	.	.
.	.	.	.	.	.	8f\	.	.	8dd\	.	.
=27-	=27-	=27-	=27-	=27-	=27-	=27-	=27-	=27-	=27-	=27-	=27-
4.E\	-ta(n)	-tan	.	.	.	2g\	.	.	2ee\	.	.
.	.	.	4.B\	-ta(n)	-tan	.	.	.	.	.	.
8F\	gl' au-	gli au-	.	.	.	.	.	.	.	.	.
2G\	-gei	-gei,	.	.	.	4.d\	-ta(n)	-tan	4.b\	-tan	-tan
.	.	.	8c\	gl' au-	gli au-	.	.	.	.	.	.
.	.	.	2d\	-gei	-gei,	.	.	.	.	.	.
!	!	!	!	!	!	!	!	!	!LO:LB:g=original	!	!
.	.	.	.	.	.	8e\	gl'au-	gli au-	8cc\	gl' au-	gli au-
!	!	!	!	!	!	!LO:MO:mod=*null:null	!	!	!	!	!
*	*	*	*	*	*	*custos:f	*	*	*	*	*
!	!	!	!	!	!	!LO:LB:g=original	!	!	!	!	!
*	*	*	*	*	*	*xywh-pl-gd--ee1638-8o--0493:1133,4470,3413,844	*	*	*	*	*
1D	piu	più	.	.	.	2f\	-gei	-gei,	2dd\	-gei	-gei,
.	.	.	4A/	piu	più	.	.	.	.	.	.
.	.	.	1A\	ſco-	ſco-	2F/	piu	più	2d/	piu	più
=28-	=28-	=28-	=28-	=28-	=28-	=28-	=28-	=28-	=28-	=28-	=28-
1.C	lie-	lie-	.	.	.	1c	lie-	lie-	1.e	lie-	lie-
.	.	.	2G/	.	.	.	.	.	.	.	.
.	.	.	2G/	.	.	2c/	-ue	-ve	.	.	.
2D/	-ue	-ve	4F/	.	.	1A/	ſco-	ſco-	2d/	-ue	-ve
.	.	.	4E/	.	.	.	.	.	.	.	.
!	!	!	!	!	!	!	!	!	!LO:MO:mod=*null:null	!	!
*	*	*	*	*	*	*	*	*	*custos:d	*	*
!	!	!	!	!	!	!	!	!	!LO:LB:g=original	!	!
=29-	=29-	=29-	=29-	=29-	=29-	=29-	=29-	=29-	=29-	=29-	=29-
*	*	*	*	*	*	*	*	*	*xywh-pl-gd--ee1638-8o--0645:1053,3790,3452,819	*	*
2.BB-X/	ſco-	ſco-	0D	.	.	.	.	.	0d	ſco-	ſco-
.	.	.	.	.	.	4G/	.	.	.	.	.
4AA/	.	.	.	.	.	4F/	.	.	.	.	.
!LO:SIC:s=4BB-/	!	!	!	!	!	!	!	!	!	!	!
4BB-X/	.	.	.	.	.	4G/	.	.	.	.	.
4AA/	.	.	.	.	.	2A/	.	.	.	.	.
!LO:SIC:s=2BB-/	!	!	!	!	!	!	!	!	!	!	!
2BB-X/	.	.	.	.	.	.	.	.	.	.	.
.	.	.	.	.	.	4G/	.	.	.	.	.
=30-	=30-	=30-	=30-	=30-	=30-	=30-	=30-	=30-	=30-	=30-	=30-
1AA	-te	-te.	1E	-te	-te.	2A/	-te	-te.	2c#X/	-te	-te.
!	!	!	!	!	!	!LO:SIC:v:s=2c#/	!	!	!	!	!
.	.	.	.	.	.	2c/	Sia	Sia	2e/	Sia	Sia
1r	.	.	1r	.	.	2d\	ca-	ca-	2f/	ca-	ca-
.	.	.	.	.	.	2e\	-ſo od	-ſo o	2g/	-ſo od	-ſo o
=31-	=31-	=31-	=31-	=31-	=31-	=31-	=31-	=31-	=31-	=31-	=31-
2r	.	.	2r	.	.	2f\	ar-	d'ar-	2a\	ar-	d'ar-
4r	.	.	4r	.	.	2e\	-te	-te,	2g/	-te	-te,
4C/	hor	hor	4c\	hor	hor	.	.	.	.	.	.
!	!	!	!LO:MO:mod=*null:null	!	!	!	!	!	!	!	!
*	*	*	*custos:A	*	*	*	*	*	*	*	*
!	!	!	!LO:LB:g=original	!	!	!	!	!	!	!	!
*	*	*	*xywh-pl-gd--ee1638-8o--0341:1124,3947,3472,752	*	*	*	*	*	*	*	*
4F\	ac-	ac-	4A/	ac-	ac-	2r	.	.	2r	.	.
4D/	-co(m)-	-com-	4B\	-co(m)-	-com-	.	.	.	.	.	.
4C/	-pa-	-pa-	4c\	-pa-	-pa-	2e\	Sia	Sia	2g/	Sia	Sia
4C/	-gna ed	-gna, ed	4c\	-gna ed	-gna, ed	.	.	.	.	.	.
!LO:MO:mod=*null:null	!	!	!	!	!	!	!	!	!	!	!
*custos:F	*	*	*	*	*	*	*	*	*	*	*
!LO:LB:g=original	!	!	!	!	!	!	!	!	!	!	!
=32-	=32-	=32-	=32-	=32-	=32-	=32-	=32-	=32-	=32-	=32-	=32-
*xywh-pl-gd--ee1638-8o--0189:1159,4028,3434,634	*	*	*	*	*	*	*	*	*	*	*
2F\	ho-	o-	2c\	ho-	o-	2f\	ca-	ca-	2a\	ca-	ca-
2E\	-ra	-ra	4e\	-ra	-ra	2g\	-ſo od	-ſo o	2b\	-ſo od	-ſo o
.	.	.	4e\	Al-	Al-	.	.	.	.	.	.
2r	.	.	4c\	-ter-	-ter-	2a\	ar-	d'ar-	2cc\	ar-	d'ar-
.	.	.	4A/	-na i	-na i	.	.	.	.	.	.
2E\	Sia	Sia	8e\	uer-	ver-	2g\	-te	-te,	4b\	-te	-te,
.	.	.	8d\	.	.	.	.	.	.	.	.
.	.	.	8c\	.	.	.	.	.	4ee\	Sia	Sia
.	.	.	8B\	.	.	.	.	.	.	.	.
=33-	=33-	=33-	=33-	=33-	=33-	=33-	=33-	=33-	=33-	=33-	=33-
2F\	ca-	ca-	4A/	.	.	4r	.	.	4cc\	ca-	ca-
.	.	.	4A/	-ſi	-ſi	4f\	hor	or	2dd\	-ſo od	-ſo o
2G\	-ſo od	-ſo o	4B\	lor	lor	4d\	ac-	ac-	.	.	.
.	.	.	4B\	Sia	Sia	4g\	-co(m)-	-com-	4.ee\	ar-	d'ar-
!	!	!	!	!	!	!LO:MO:mod=*null:null	!	!	!	!	!
*	*	*	*	*	*	*custos:e	*	*	*	*	*
!	!	!	!	!	!	!LO:PB:g=original	!	!	!	!	!
*	*	*	*	*	*	*xywh-pl-gd--ee1638-8o--0493:4547,513,3344,844	*	*	*	*	*
2A\	ar-	d'ar-	2c\	ca-	ca-	4.e\	-pa-	-pa-	.	.	.
.	.	.	.	.	.	.	.	.	8dd\	.	.
.	.	.	.	.	.	.	.	.	2cc\	.	.
.	.	.	.	.	.	8f\	.	.	.	.	.
2G\	-te	-te,	2d\	-ſo	-ſo o	2g\	-gna	-gna,	.	.	.
.	.	.	.	.	.	.	.	.	8b\	.	.
.	.	.	.	.	.	.	.	.	8a\	.	.
=34-	=34-	=34-	=34-	=34-	=34-	=34-	=34-	=34-	=34-	=34-	=34-
2r	.	.	2e\	od	d'ar-	4c/	ed	ed	8g\	.	.
.	.	.	.	.	.	.	.	.	8a\	.	.
.	.	.	.	.	.	2g\	ho-	o-	8b\	.	.
.	.	.	.	.	.	.	.	.	8g\	.	.
4r	.	.	2d\	art' hor	te, or	.	.	.	2a\	.	.
4D/	hor	or	.	.	.	4f#X\	.	.	.	.	.
4G\	ac-	ac-	4B\	ac-	ac-	2g\	-ra	-ra	2g/	-te	-te,
4E\	-co(m)-	-com-	4c#X\	-com-	-com-	.	.	.	.	.	.
!	!	!	!	!	!	!	!	!	!LO:MO:mod=*null:null	!	!
*	*	*	*	*	*	*	*	*	*custos:dd	*	*
!	!	!	!	!	!	!	!	!	!LO:LB:g=original	!	!
*	*	*	*	*	*	*	*	*	*xywh-pl-gd--ee1638-8o--0645:947,4422,3569,819	*	*
4D/	-pa-	-pa-	4d\	-pa-	-pa-	4r	.	.	4r	.	.
4D/	-gna	-gna,	4A/	-gna	-gna,	4d\	hor	or	4dd\	hor	or
!	!	!	!LO:MO:mod=*null:null	!	!	!	!	!	!	!	!
*	*	*	*custos:d	*	*	*	*	*	*	*	*
!	!	!	!LO:LB:g=original	!	!	!	!	!	!	!	!
=35-	=35-	=35-	=35-	=35-	=35-	=35-	=35-	=35-	=35-	=35-	=35-
*	*	*	*xywh-pl-gd--ee1638-8o--0341:1165,4493,3410,803	*	*	*	*	*	*	*	*
2r	.	.	2r	.	.	4g\	ac-	ac-	4b\	ac-	ac-
.	.	.	.	.	.	4e\	-co(m)-	-com-	4cc#X\	-co(m)-	-com-
4r	.	.	4r	.	.	4d\	-pa-	-pa-	4dd\	-pa-	-pa-
!	!	!	!	!	!	!	!	!	!	!LO:MO:mod=-gna	!
4D/	ed	ed	4d\	ed	ed	4f#X\	-gna ed	-gna, ed	4a\	-gra	-gna,
2G\	ho-	o-	2d\	ho-	o-	2g\	ho-	o-	2b\	ed ho-	ed o-
!	!	!	!	!	!	!	!	!	!LO:SIC:s=2ccn\	!	!
2F\	-ra	-ra	4f\	-ra	-ra	1a\	-ra	-ra	2ccny\	-ra	-ra
.	.	.	4cny\	Al-	Al-	.	.	.	.	.	.
=36-	=36-	=36-	=36-	=36-	=36-	=36-	=36-	=36-	=36-	=36-	=36-
4r	.	.	4A/	-ter-	-ter-	.	.	.	4r	.	.
!LO:SIC:v:s=4B-\	!	!	!	!	!	!	!	!	!	!	!
4B\	Al-	Al-	4F/	-na i	-na i	.	.	.	4cc\	Al-	Al-
4A\	-ter-	-ter-	4f\	ver-	ver-	2r	.	.	4cc\	-ter-	-ter-
4F\	-na i	-na i	4f\	-ſi	-ſi	.	.	.	4a\	-na i	-na i
!LO:MO:mod=*null:null	!	!	!	!	!	!	!	!	!	!	!
*custos:c	*	*	*	*	*	*	*	*	*	*	*
!LO:LB:g=original	!	!	!	!	!	!	!	!	!	!	!
*xywh-pl-gd--ee1638-8o--0189:1242,4559,3372,718	*	*	*	*	*	*	*	*	*	*	*
8c\	ver-	ver-	2e\	lor	lor	4r	.	.	8ee\	uer-	ver-
8B\	.	.	.	.	.	.	.	.	8dd\	.	.
8A\	.	.	.	.	.	4c/	Al-	Al-	8cc\	.	.
8G\	.	.	.	.	.	.	.	.	8b\	.	.
4F\	.	.	2r	.	.	4c/	-ter-	-ter-	4a\	.	.
4F\	-ſi	-ſi	.	.	.	4d\	-na i	-na i	4a\	-ſi	-ſi
=37-	=37-	=37-	=37-	=37-	=37-	=37-	=37-	=37-	=37-	=37-	=37-
4E\	lor	lor	4r	.	.	8e\	ver-	ver-	4g#X/	lor	lor
.	.	.	.	.	.	8d\	.	.	.	.	.
4A\	Al-	Al-	4e\	Al-	Al-	8c/	.	.	4a\	el	ed
.	.	.	.	.	.	8B/	.	.	.	.	.
4F\	-ter-	-ter-	4d\	-ter-	-ter-	4A/	.	.	2a\	ho-	o-
4D/	-na i	-na i	4d\	-na i	-na i	4fny\	-ſi	-ſi	.	.	.
!	!	!	!	!	!	!LO:MO:mod=*null:null	!	!	!	!	!
*	*	*	*	*	*	*custos:e	*	*	*	*	*
!	!	!	!	!	!	!LO:LB:g=original	!	!	!	!	!
*	*	*	*	*	*	*xywh-pl-gd--ee1638-8o--0493:4570,1299,3378,647	*	*	*	*	*
8A\	ver-	ver-	8c\	ver-	ver-	4e\	lor	lor	2a\	-ra	-ra
8G\	.	.	8B\	.	.	.	.	.	.	.	.
8F\	.	.	8A/	.	.	4a\	Al-	Al-	.	.	.
8E\	.	.	8G/	.	.	.	.	.	.	.	.
4D/	.	.	4.A/	.	.	4f\	-ter-	-ter-	4r	.	.
4D/	-ſi	-ſi	.	.	.	4d\	-na i	-na i	4f/	Al-	Al-
.	.	.	8B\	-ſi	-ſi	.	.	.	.	.	.
=38-	=38-	=38-	=38-	=38-	=38-	=38-	=38-	=38-	=38-	=38-	=38-
2.C/	lor	lor	4c\	lor	lor	8g\	ver-	ver-	4e/	-ter-	-ter-
.	.	.	.	.	.	8f\	.	.	.	.	.
.	.	.	4G/	Al-	Al-	8e\	.	.	4cny/	-na i	-na i
.	.	.	.	.	.	8d\	.	.	.	.	.
!	!	!	!	!	!	!	!	!	!LO:MO:mod=*null:null	!	!
*	*	*	*	*	*	*	*	*	*custos:g	*	*
!	!	!	!	!	!	!	!	!	!LO:PB:g=original	!	!
*	*	*	*	*	*	*	*	*	*xywh-pl-gd--ee1638-8o--0645:4657,560,3229,784	*	*
.	.	.	4E/	-ter-	-ter-	4c/	.	.	8gny/	ver-	ver-
.	.	.	.	.	.	.	.	.	8f/	.	.
4G\	Al-	Al-	4C/	-na i	-na i	4c/	-ſi	-ſi	8e/	.	.
.	.	.	.	.	.	.	.	.	8d/	.	.
!	!	!	!LO:MO:mod=*null:null	!	!	!	!	!	!	!	!
*	*	*	*custos:G	*	*	*	*	*	*	*	*
!	!	!	!LO:PB:g=original	!	!	!	!	!	!	!	!
*	*	*	*xywh-pl-gd--ee1638-8o--0341:4659,546,3307,772	*	*	*	*	*	*	*	*
4E\	-ter-	-ter-	8G/	ver-	ver-	4e\	lor	lor	4c/	.	.
.	.	.	8F/	.	.	.	.	.	.	.	.
4C/	-na i	-na i	8E/	.	.	4g\	Al-	Al-	4e/	-ſi	-ſi
.	.	.	8D/	.	.	.	.	.	.	.	.
8G\	uer-	ver-	4C/	.	.	4e\	-ter-	-ter-	4g/	lor	lor
8F\	.	.	.	.	.	.	.	.	.	.	.
8E\	.	.	4C/	-ſi	-ſi	4c/	-na i	-na i	4g/	Al-	Al-
8D\	.	.	.	.	.	.	.	.	.	.	.
=39-	=39-	=39-	=39-	=39-	=39-	=39-	=39-	=39-	=39-	=39-	=39-
1C	.	.	4E/	lor	lor	8g\	uer-	ver-	4e/	-ter-	-ter-
.	.	.	.	.	.	8f\	.	.	.	.	.
.	.	.	2G/	Al-	Al-	8e\	.	.	4c/	-na i	-na i
.	.	.	.	.	.	8d\	.	.	.	.	.
.	.	.	.	.	.	4c/	.	.	8cc\	ver-	ver-
.	.	.	.	.	.	.	.	.	8b\	.	.
.	.	.	4c\	-ter-	-ter-	4e\	-ſi	-ſi	8a\	.	.
.	.	.	.	.	.	.	.	.	8g\	.	.
1D	-ſi	-ſi	4A/	-na i	-na i	4r	.	.	4.f/	.	.
.	.	.	4.d\	ver-	ver-	4A/	i	i	.	.	.
!	!	!	!	!	!	!	!	!	!LO:LB:g=original	!	!
.	.	.	.	.	.	.	.	.	8e/	.	.
.	.	.	.	.	.	8f\	ver-	ver-	4d/	.	.
.	.	.	8c\	.	.	8e\	.	.	.	.	.
.	.	.	8B\	.	.	8d\	.	.	4f/	-ſi	-ſi
.	.	.	8A\	.	.	8c\	.	.	.	.	.
!LO:MO:mod=*null:null	!	!	!	!	!	!	!	!	!	!	!
*custos:E	*	*	*	*	*	*	*	*	*	*	*
!LO:PB:g=original	!	!	!	!	!	!	!	!	!	!	!
=40-	=40-	=40-	=40-	=40-	=40-	=40-	=40-	=40-	=40-	=40-	=40-
*xywh-pl-gd--ee1638-8o--0189:4729,635,3361,728	*	*	*	*	*	*	*	*	*	*	*
1E	lor	lor	4G#X/	.	.	4B/	.	.	1e	lor	lor
.	.	.	4A/	-ſi	-ſi	4A/	-ſi	-ſi	.	.	.
.	.	.	2B\	lor	lor	2G#X/	lor	lor	.	.	.
!	!	!	!	!	!	!LO:MO:mod=*null:null	!	!	!	!	!
*	*	*	*	*	*	*custos:e	*	*	*	*	*
!	!	!	!	!	!	!LO:LB:g=original	!	!	!	!	!
*	*	*	*	*	*	*xywh-pl-gd--ee1638-8o--0493:4524,1809,3482,671	*	*	*	*	*
1A	la	la	2r	.	.	2r	.	.	2e/	la	la
.	.	.	2c#X\	la	la	2e\	la	la	2.a\	Mu-	Mu-
=41-	=41-	=41-	=41-	=41-	=41-	=41-	=41-	=41-	=41-	=41-	=41-
2.D/	Mu-	Mu-	2.d\	Mu-	Mu-	2.f\	Mu-	Mu-	.	.	.
.	.	.	.	.	.	.	.	.	4a\	-ſi-	-ſi-
.	.	.	.	.	.	.	.	.	1a	-ca	-ca
4D/	-ſi-	-ſi-	4d\	-ſi-	-ſi-	4f\	-ſi-	-ſi-	.	.	.
2AA/	-ca	-ca	1c#X	-ca	-ca	1e	-ca	-ca	.	.	.
1A\	la	la	.	.	.	.	.	.	2e/	la	la
!	!	!	!LO:MO:mod=*null:null	!	!	!	!	!	!LO:MO:mod=*null:null	!	!
*	*	*	*custos:c	*	*	*	*	*	*custos:a	*	*
!	!	!	!LO:LB:g=original	!	!	!	!	!	!LO:LB:g=original	!	!
=42-	=42-	=42-	=42-	=42-	=42-	=42-	=42-	=42-	=42-	=42-	=42-
*	*	*	*xywh-pl-gd--ee1638-8o--0341:4659,1340,3369,546	*	*	*	*	*	*xywh-pl-gd--ee1638-8o--0645:4622,1251,3510,667	*	*
.	.	.	2c#\	la	la	2e\	la	la	2.a\	Mu-	Mu-
2.D/	Mu-	Mu-	2.d\	Mu-	Mu-	2.f\	Mu-	Mu-	.	.	.
.	.	.	.	.	.	.	.	.	4a\	-ſi-	-ſi-
.	.	.	.	.	.	.	.	.	2a\	-ca	-ca
4D/	-ſi-	-ſi-	4d\	-ſi-	-ſi-	4f\	-ſi-	-ſi-	.	.	.
2AA/	-ca	-ca	2c#X\	-ca	-ca	2e\	-ca	-ca	2r	.	.
=43-	=43-	=43-	=43-	=43-	=43-	=43-	=43-	=43-	=43-	=43-	=43-
1r	.	.	2r	.	.	2r	.	.	4d/	o-	o-
.	.	.	.	.	.	.	.	.	4e/	.	.
.	.	.	2D/	la	la	4d\	o-	o-	4f/	.	.
.	.	.	.	.	.	4e\	.	.	4g/	.	.
4D/	o-	o-	2.d\	Mu-	Mu-	4f\	.	.	2.a\	.	.
4E\	.	.	.	.	.	4g\	.	.	.	.	.
4F\	.	.	.	.	.	4a\	.	.	.	.	.
4G\	.	.	4d\	-ſi-	-ſi-	8g\	.	.	4b\	.	.
.	.	.	.	.	.	8f\	.	.	.	.	.
=44-	=44-	=44-	=44-	=44-	=44-	=44-	=44-	=44-	=44-	=44-	=44-
8A\	.	.	8cny\	-ca	-ca	4e\	.	.	4cc\	.	.
8G\	.	.	8B\	o-	o-	.	.	.	.	.	.
8F\	.	.	8A/	.	.	2f\	.	.	4c/	.	.
8E\	.	.	8Gny/	.	.	.	.	.	.	.	.
4D/	.	.	4A/	.	.	.	.	.	4f/	.	.
8C/	.	.	4B\	.	.	8e\	.	.	4g/	.	.
8BB/	.	.	.	.	.	8d\	.	.	.	.	.
4AA/	.	.	4B\	.	.	8e\	.	.	4a\	.	.
.	.	.	.	.	.	8f\	.	.	.	.	.
4BB/	.	.	4c\	.	.	4.g\	.	.	4d/	.	.
4C/	.	.	4.A/	.	.	.	.	.	4e/	.	.
.	.	.	.	.	.	16f\	.	.	.	.	.
.	.	.	.	.	.	16e\	.	.	.	.	.
4D/	.	.	.	.	.	2d\	.	.	4f/	.	.
.	.	.	8B\	.	.	.	.	.	.	.	.
=45-	=45-	=45-	=45-	=45-	=45-	=45-	=45-	=45-	=45-	=45-	=45-
1E	.	.	4G#X/	.	.	.	.	.	1e	.	.
.	.	.	2A/	.	.	4c/	.	.	.	.	.
.	.	.	.	.	.	2B/	.	.	.	.	.
.	.	.	4G#X/	.	.	.	.	.	.	.	.
1AAl/	-ra.	-ra.	1Al\	-ra.	-ra.	1c#Xl\	-ra.	-ra.	1el/	-ra.	-ra.
==	==	==	==	==	==	==	==	==	==	==	==
*-	*-	*-	*-	*-	*-	*-	*-	*-	*-	*-	*-
!!!system-decoration: [(s1,s2,s3,s4)]
!!!RDF**kern: l = terminal long
!!!ENC: Berenika Jozajtis
!!!END: 2022-06-27
!!!ENC: Urszula Świątek
!!!END: 2022-07-12
!!!YEC: Copyright 2022 Narodowy Instytut Fryderyka Chopina (https://polishscores.org)
!!!YEM: License CC-BY-4.0 (https://creativecommons.org/licenses/by/4.0)
!!!IIIF: https://repozytorium.nifc.pl/islandora/object/pl-gd%3A57883/datastream/IIIF/view
!!!ENC-iiif: Zuzanna Daniec
!!!END-iiif: 2022-09-10
!!!ENC-modern: Krzysztof Stępień
!!!END-modern: 2022-11-07
!!!filter-modern: shed -e "s/:t=P:/:T=P:/L"
!!!filter-modern: shed -e "s/-//B"
!!!filter-modern: shed -e "s/^(\d+[\/\\]right)/$1yy/I; s/^(\d+[\/\\]left)/$1yy/I"
!!!filter-modern: shed -e "s/yy//"
!!!filter-modern: shed -k -e "s/\(y(?!y)/(/"
!!!filter-modern: shed -k -e "s/([\(\)\[\]])[><]/$1/g"
!!!filter-modern: shed -k -e “s/([()[]_])[><]/$1/g”
!!!filter-modern: tie -s
!!!filter-modern: shed -e "s/^(X?)rep$/$1REP/I"
!!!filter-modern: shed -k -e "s/^(X?)tuplet/$1TUPLET/I"
!!!filter-modern: shed -e "s/LO:DY:(a|b|rj)/LO:dy:$1/L"
!!!filter-modern: shed -e "s/LO:HP:(a|b)/LO:hp:$1/L"
!!!filter-modern: shed -k -e "s/r[a-gA-G]+/r/D"
!!!filter-modern: shed -k -e "s/([^a-gA-Gn#-])[<>]/$1/g"
!!!filter-modern: sic -sq
!!!filter-modern: autostem -r
!!!filter-modern: modori -m
!!!filter-modern: humtr -p
